X:121
T:reel des Esquimaux
N:repertoire d'Isidore Soucy
S:Laurence Beaudry
Z:robin.beech@mcgill.ca
M:4/4
L:1/8
K:G
GFGA GEDC | B,G,A,C B,G,G,G, | B,DGB cBAG | FGAB A(3DEF | 
GFGA GEDC | B,G,A,C B,G,G,G, | B,DGB cBAG |1 FDEF G(3DEF :|2 FDEF GABc |:
d&gt;e dcBd | g&gt;a gedc | BGBd cBAG | FGAB A2Bc | d&gt;e dcBd | gfga gedc | BGBd cBAG |1 FDEF GABc :|2 FDEF GDEF |]

